public/images/up-right-fill.svg

<?xml version="1.0" encoding="UTF-8" standalone="no"?>
<svg viewBox="-30 0 118 118" version="1.1" xmlns="http://www.w3.org/2000/svg" xmlns:xlink="http://www.w3.org/1999/xlink">
    <g id="Page-1" stroke="none" stroke-width="1" fill="none" fill-rule="evenodd">
        <path d="M42.6,16.1 L42.6,17.45 L42.6,17.8 L42.6,18.05 L42.75,20.7 C43.05,24.2333333 43.7666667,27.35 44.9,30.05 L44.85,30 C48.25,39.5666667 55.8666667,44.7 67.7,45.4 L68.15,45.4 L71.9,45.4 L72,45.4 L72,72.1 L67.85,72.1 L66.45,72.1 C34.1833333,71.4 17.3666667,55.8 16,25.3 L16,16.15 L17.7,16.15 L42.6,16.1 M52.15,51.15 C51.1166667,50.1166667 49.85,49.6 48.35,49.6 C46.85,49.6 45.5666667,50.1166667 44.5,51.15 C43.4666667,52.2166667 42.95,53.5 42.95,55 L42.95,55.15 C42.9833333,56.5833333 43.5,57.8 44.5,58.8 C45.5666667,59.8666667 46.85,60.4 48.35,60.4 C49.85,60.4 51.1166667,59.8666667 52.15,58.8 C53.1833333,57.8 53.7166667,56.5833333 53.75,55.15 L53.75,55 C53.75,53.5 53.2166667,52.2166667 52.15,51.15 M39.45,51.85 C39.45,51.0833333 39.1833333,50.4333333 38.65,49.9 C38.1166667,49.3666667 37.4666667,49.1 36.7,49.1 C35.9333333,49.1 35.2833333,49.3666667 34.75,49.9 C34.2166667,50.4333333 33.95,51.0833333 33.95,51.85 C33.95,52.6166667 34.2166667,53.2666667 34.75,53.8 C35.2833333,54.3333333 35.9333333,54.6 36.7,54.6 C37.4666667,54.6 38.1166667,54.3333333 38.65,53.8 C39.1833333,53.2666667 39.45,52.6166667 39.45,51.85 M23.3,39.35 C23.5333333,40.3166667 24.0333333,41.1833333 24.8,41.95 C25.9,43.05 27.2333333,43.6 28.8,43.6 C30.3666667,43.6 31.7,43.05 32.8,41.95 C33.5666667,41.1833333 34.0666667,40.3166667 34.3,39.35 L34.45,37.95 C34.45,36.3833333 33.9,35.05 32.8,33.95 C31.7,32.85 30.3666667,32.3 28.8,32.3 C27.2333333,32.3 25.9,32.85 24.8,33.95 C23.7,35.05 23.15,36.3833333 23.15,37.95 L23.3,39.35" id="Shape" fill="#1EA7E1"></path>
        <path d="M23.3,39.35 L23.15,37.95 C23.15,36.3833333 23.7,35.05 24.8,33.95 C25.9,32.85 27.2333333,32.3 28.8,32.3 C30.3666667,32.3 31.7,32.85 32.8,33.95 C33.9,35.05 34.45,36.3833333 34.45,37.95 L34.3,39.35 C34.0666667,40.3166667 33.5666667,41.1833333 32.8,41.95 C31.7,43.05 30.3666667,43.6 28.8,43.6 C27.2333333,43.6 25.9,43.05 24.8,41.95 C24.0333333,41.1833333 23.5333333,40.3166667 23.3,39.35 M52.15,51.15 C53.2166667,52.2166667 53.75,53.5 53.75,55 L53.75,55.15 C53.7166667,56.5833333 53.1833333,57.8 52.15,58.8 C51.1166667,59.8666667 49.85,60.4 48.35,60.4 C46.85,60.4 45.5666667,59.8666667 44.5,58.8 C43.5,57.8 42.9833333,56.5833333 42.95,55.15 L42.95,55 C42.95,53.5 43.4666667,52.2166667 44.5,51.15 C45.5666667,50.1166667 46.85,49.6 48.35,49.6 C49.85,49.6 51.1166667,50.1166667 52.15,51.15 M39.45,51.85 C39.45,52.6166667 39.1833333,53.2666667 38.65,53.8 C38.1166667,54.3333333 37.4666667,54.6 36.7,54.6 C35.9333333,54.6 35.2833333,54.3333333 34.75,53.8 C34.2166667,53.2666667 33.95,52.6166667 33.95,51.85 C33.95,51.0833333 34.2166667,50.4333333 34.75,49.9 C35.2833333,49.3666667 35.9333333,49.1 36.7,49.1 C37.4666667,49.1 38.1166667,49.3666667 38.65,49.9 C39.1833333,50.4333333 39.45,51.0833333 39.45,51.85" id="Shape" fill="#2CB8F3"></path>
    </g>
</svg>

<svg viewBox="-30 0 118 118" xmlns="http://www.w3.org/2000/svg"><g fill="none" fill-rule="evenodd"><path d="M42.6 16.1V18.05l.15 2.65c.3 3.533 1.017 6.65 2.15 9.35l-.05-.05c3.4 9.567 11.017 14.7 22.85 15.4H72v26.7H66.45C34.183 71.4 17.367 55.8 16 25.3v-9.15h1.7l24.9-.05m9.55 35.05c-1.033-1.033-2.3-1.55-3.8-1.55s-2.783.517-3.85 1.55c-1.033 1.067-1.55 2.35-1.55 3.85v.15c.033 1.433.55 2.65 1.55 3.65 1.067 1.067 2.35 1.6 3.85 1.6s2.767-.533 3.8-1.6c1.033-1 1.567-2.217 1.6-3.65V55c0-1.5-.533-2.783-1.6-3.85m-12.7.7c0-.767-.267-1.417-.8-1.95-.533-.533-1.183-.8-1.95-.8-.767 0-1.417.267-1.95.8-.533.533-.8 1.183-.8 1.95 0 .767.267 1.417.8 1.95.533.533 1.183.8 1.95.8.767 0 1.417-.267 1.95-.8.533-.533.8-1.183.8-1.95M23.3 39.35c.233.967.733 1.833 1.5 2.6 1.1 1.1 2.433 1.65 4 1.65 1.567 0 2.9-.55 4-1.65.767-.767 1.267-1.633 1.5-2.6l.15-1.4c0-1.567-.55-2.9-1.65-4-1.1-1.1-2.433-1.65-4-1.65-1.567 0-2.9.55-4 1.65-1.1 1.1-1.65 2.433-1.65 4l.15 1.4" fill="#1EA7E1"/><path d="M23.3 39.35l-.15-1.4c0-1.567.55-2.9 1.65-4 1.1-1.1 2.433-1.65 4-1.65 1.567 0 2.9.55 4 1.65 1.1 1.1 1.65 2.433 1.65 4l-.15 1.4c-.233.967-.733 1.833-1.5 2.6-1.1 1.1-2.433 1.65-4 1.65-1.567 0-2.9-.55-4-1.65-.767-.767-1.267-1.633-1.5-2.6m28.85 11.8c1.067 1.067 1.6 2.35 1.6 3.85v.15c-.033 1.433-.567 2.65-1.6 3.65-1.033 1.067-2.3 1.6-3.8 1.6s-2.783-.533-3.85-1.6c-1-1-1.517-2.217-1.55-3.65V55c0-1.5.517-2.783 1.55-3.85 1.067-1.033 2.35-1.55 3.85-1.55s2.767.517 3.8 1.55m-12.7.7c0 .767-.267 1.417-.8 1.95-.533.533-1.183.8-1.95.8-.767 0-1.417-.267-1.95-.8-.533-.533-.8-1.183-.8-1.95 0-.767.267-1.417.8-1.95.533-.533 1.183-.8 1.95-.8.767 0 1.417.267 1.95.8.533.533.8 1.183.8 1.95" fill="#2CB8F3"/></g></svg>
